icons/svg/skimap/piste_nordic.svg

<?xml version="1.0" encoding="UTF-8" standalone="no"?>
<svg
   xmlns:dc="http://purl.org/dc/elements/1.1/"
   xmlns:cc="http://creativecommons.org/ns#"
   xmlns:rdf="http://www.w3.org/1999/02/22-rdf-syntax-ns#"
   xmlns:svg="http://www.w3.org/2000/svg"
   xmlns="http://www.w3.org/2000/svg"
   xmlns:sodipodi="http://sodipodi.sourceforge.net/DTD/sodipodi-0.dtd"
   xmlns:inkscape="http://www.inkscape.org/namespaces/inkscape"
   width="32"
   height="32"
   id="svg2"
   version="1.1"
   inkscape:version="0.48.4 r9939"
   sodipodi:docname="piste_hike.svg">
  <defs
     id="defs13">
    <inkscape:path-effect
       effect="gears"
       id="path-effect3774"
       is_visible="true"
       teeth="6"
       phi="-1.2" />
    <inkscape:path-effect
       effect="bend_path"
       id="path-effect3772"
       is_visible="false"
       bendpath="m 95.790098,316.51174 c 144.429032,-206.42506 223.313032,-11.7428 339.548092,0"
       prop_scale="1.19"
       scale_y_rel="false"
       vertical="false"
       bendpath-nodetypes="cc" />
  </defs>
  <sodipodi:namedview
     pagecolor="#ffffff"
     bordercolor="#666666"
     borderopacity="1"
     objecttolerance="10"
     gridtolerance="10"
     guidetolerance="10"
     inkscape:pageopacity="0"
     inkscape:pageshadow="2"
     inkscape:window-width="1680"
     inkscape:window-height="1021"
     id="namedview11"
     showgrid="false"
     inkscape:zoom="9.2070175"
     inkscape:cx="7.6258907"
     inkscape:cy="20.202625"
     inkscape:window-x="0"
     inkscape:window-y="0"
     inkscape:window-maximized="1"
     inkscape:current-layer="svg2"
     inkscape:snap-object-midpoints="true"
     inkscape:snap-page="true" />
  <metadata
     id="metadata2975">image/svg+xmlen<rdf:RDF>
  <cc:Work
     rdf:about="">
    <dc:format>image/svg+xml</dc:format>
    <dc:type
       rdf:resource="http://purl.org/dc/dcmitype/StillImage" />
    <dc:title></dc:title>
  </cc:Work>
</rdf:RDF>
</metadata>
  <g
     transform="matrix(0.0551864,0,0,0.0551864,0,-0.0555723)"
     id="g1327">
    <path
       inkscape:connector-curvature="0"
       d="M 66.275,1.768 C 24.94,1.768 1.704,23.139 1.704,66.804 l 0,450.123 c 0,40.844 20.895,62.229 62.192,62.229 l 452.024,0 c 41.307,0 62.229,-20.315 62.229,-62.229 l 0,-450.123 c 0,-42.601 -20.922,-65.036 -63.521,-65.036 -0.004,0 -448.495,-0.143 -448.353,0 z"
       style="fill:#111111;stroke:#eeeeee;stroke-width:3.40799999"
       id="path1329" />
  </g>
  <path
     style="font-size:40px;font-style:normal;font-variant:normal;font-weight:normal;font-stretch:normal;text-align:start;line-height:125%;writing-mode:lr-tb;text-anchor:start;fill:#ffffff;fill-opacity:1;stroke:none;font-family:NPSPICT3;-inkscape-font-specification:NPSPICT3"
     d="m 19.499508,7.236856 c -0.338726,1.28e-5 -0.629079,0.115431 -0.865096,0.3514453 -0.236038,0.2360398 -0.351456,0.5260264 -0.351445,0.8650961 -1.1e-5,0.3387236 0.115407,0.6290797 0.351445,0.8650959 0.236017,0.236038 0.52637,0.3514551 0.865096,0.3514449 0.326878,1.02e-5 0.622962,-0.1154069 0.865097,-0.3514449 C 20.606714,9.0824771 20.716036,8.792121 20.71605,8.4533974 20.716036,8.1143277 20.606714,7.8243411 20.364605,7.5883013 20.12247,7.352287 19.826386,7.2368688 19.499508,7.236856 z m -4.433616,2.1086718 c -0.181739,1.05e-5 -0.353652,0.07075 -0.486618,0.2162743 l -2.027569,2.3519809 c -0.145165,0.120791 -0.216279,0.250826 -0.216272,0.432546 -7e-6,0.16955 0.06827,0.311587 0.189238,0.432549 0.120962,0.120975 0.263003,0.189245 0.432549,0.189239 0.181354,6e-6 0.326233,-0.0711 0.459583,-0.216274 l 1.892397,-2.189774 1.081369,0.02703 -4.163274,4.812095 -2.8115624,-0.02703 c -0.2301201,4e-6 -0.4103697,0.09795 -0.5677195,0.243309 -0.1573531,0.14535 -0.24331,0.31094 -0.2433082,0.540685 -1.8e-6,0.217931 0.085953,0.416465 0.2433082,0.567717 0.1573498,0.151263 0.3497886,0.216279 0.5677195,0.216276 l 3.2711444,0 c 0.133337,3e-6 0.269878,-0.0031 0.378479,-0.02703 0.2785,-0.04839 0.458749,-0.122153 0.567721,-0.243308 l 1.622053,-1.811295 1.892399,1.811295 -0.75696,3.406314 c -0.02439,0.07276 -0.05407,0.11382 -0.05406,0.162207 -10e-6,0.217928 0.08595,0.410367 0.243308,0.56772 0.157341,0.157349 0.34978,0.243308 0.567719,0.243308 0.411466,0 0.659805,-0.198121 0.75696,-0.621787 l 0.919164,-4.136241 c 0.108957,-0.435854 0.07056,-0.76749 -0.135172,-0.973234 l -1.64909,-1.649089 1.784262,-2.081638 1.162473,1.162473 c 0.121139,0.120791 0.275182,0.189247 0.432547,0.189241 0.205725,6e-6 0.401188,-0.08898 0.594754,-0.270343 l 1.892397,-1.892398 c 0.09676,-0.121144 0.135156,-0.260343 0.135172,-0.405514 -1.6e-5,-0.18135 -0.06219,-0.338418 -0.189241,-0.4595827 -0.127078,-0.121142 -0.263022,-0.162193 -0.432547,-0.162207 -0.169558,1.4e-5 -0.308753,0.03842 -0.405514,0.135172 L 20.445711,11.454201 18.553314,9.5618031 C 18.408133,9.4162845 18.230538,9.3455425 18.012622,9.3455319 l -2.946733,0 z m 8.056205,1.9464652 -4.758028,9.651229 0.513651,0 4.703961,-9.434954 -0.459584,-0.216275 z M 7.7936775,12.4815 l 0,0.486617 4.1092065,0 0,-0.486617 -4.1092065,0 z m -0.2973768,4.163276 0.1351712,1.540952 2.2438441,2.324946 c 0.290079,0.288292 0.414186,0.292089 0.811027,0.405513 0.414538,0.105958 1.141815,-0.10563 1.459849,-0.405513 l -0.486617,-0.675857 c -0.191218,0.182107 -0.485358,0.305819 -0.729923,0.243307 -0.116784,-0.02985 -0.237108,-0.09781 -0.324412,-0.189238 l -3.1089393,-3.24411 z m 15.5176603,4.46065 c -9.52e-4,0.26406 -0.109999,0.542639 -0.32441,0.675857 -0.102386,0.0636 -0.225032,0.108422 -0.351446,0.108138 l -13.3278863,0.02703 0,1.000266 13.2738173,-0.05406 c 0.408857,-0.0098 0.481495,-0.08951 0.838061,-0.297377 0.363431,-0.225805 0.726177,-0.914609 0.729927,-1.351714 l -0.838063,-0.108138 z"
     id="flowRoot3192"
     inkscape:connector-curvature="0" />
</svg>

<svg width="32" height="32" viewBox="0 0 32 32" fill="none" xmlns="http://www.w3.org/2000/svg">
<g clip-path="url(#clip0)">
<path d="M3.65748 0.0419596C1.37635 0.0419596 0.0940399 1.22135 0.0940399 3.63106V28.4717C0.0940399 30.7258 1.24716 31.9059 3.52619 31.9059H28.4718C30.7514 31.9059 31.906 30.7848 31.906 28.4717V3.63106C31.906 1.28007 30.7514 0.0419596 28.4005 0.0419596C28.4002 0.0419596 3.64964 0.0340679 3.65748 0.0419596V0.0419596Z" fill="#111111" stroke="#EEEEEE" stroke-width="0.188075"/>
<path d="M19.4995 7.23682C19.1608 7.23683 18.8704 7.35225 18.6344 7.58826C18.3984 7.8243 18.283 8.11429 18.283 8.45336C18.283 8.79208 18.3984 9.08244 18.6344 9.31845C18.8704 9.55449 19.1608 9.66991 19.4995 9.6699C19.8264 9.66991 20.1225 9.55449 20.3646 9.31845C20.6067 9.08244 20.716 8.79208 20.716 8.45336C20.716 8.11429 20.6067 7.8243 20.3646 7.58826C20.1225 7.35225 19.8264 7.23683 19.4995 7.23682ZM15.0659 9.34549C14.8842 9.3455 14.7122 9.41624 14.5793 9.56176L12.5517 11.9137C12.4065 12.0345 12.3354 12.1646 12.3354 12.3463C12.3354 12.5158 12.4037 12.6579 12.5247 12.7788C12.6456 12.8998 12.7877 12.9681 12.9572 12.9681C13.1386 12.9681 13.2835 12.897 13.4168 12.7518L15.3092 10.562L16.3906 10.5891L12.2273 15.4012L9.41573 15.3741C9.18561 15.3741 9.00536 15.4721 8.84801 15.6174C8.69066 15.7628 8.6047 15.9284 8.6047 16.1581C8.6047 16.376 8.69066 16.5746 8.84801 16.7258C9.00536 16.8771 9.1978 16.9421 9.41573 16.9421H12.6869C12.8202 16.9421 12.9568 16.939 13.0654 16.9151C13.3439 16.8667 13.5241 16.7929 13.6331 16.6718L15.2551 14.8605L17.1475 16.6718L16.3906 20.0781C16.3662 20.1508 16.3365 20.1919 16.3365 20.2403C16.3365 20.4582 16.4225 20.6507 16.5798 20.808C16.7372 20.9654 16.9296 21.0513 17.1475 21.0513C17.559 21.0513 17.8073 20.8532 17.9045 20.4295L18.8237 16.2933C18.9326 15.8574 18.8942 15.5258 18.6885 15.3201L17.0394 13.671L18.8237 11.5893L19.9861 12.7518C20.1073 12.8726 20.2613 12.9411 20.4187 12.941C20.6244 12.9411 20.8199 12.8521 21.0134 12.6707L22.9058 10.7783C23.0026 10.6572 23.041 10.518 23.041 10.3728C23.041 10.1914 22.9788 10.0344 22.8518 9.91321C22.7247 9.79207 22.5887 9.75102 22.4192 9.751C22.2497 9.75102 22.1105 9.78942 22.0137 9.88617L20.4457 11.4542L18.5533 9.56176C18.4081 9.41624 18.2305 9.3455 18.0126 9.34549H15.0659L15.0659 9.34549ZM23.1221 11.292L18.3641 20.9432H18.8777L23.5817 11.5082L23.1221 11.292V11.292ZM7.79368 12.4815V12.9681H11.9029V12.4815H7.79368ZM7.4963 16.6447L7.63147 18.1857L9.87531 20.5106C10.1654 20.7989 10.2895 20.8027 10.6863 20.9161C11.1009 21.0221 11.8282 20.8105 12.1462 20.5106L11.6596 19.8348C11.4684 20.0169 11.1742 20.1406 10.9297 20.0781C10.8129 20.0482 10.6925 19.9803 10.6052 19.8888L7.4963 16.6447V16.6447ZM23.014 21.1054C23.013 21.3694 22.904 21.648 22.6895 21.7812C22.5872 21.8448 22.4645 21.8897 22.3381 21.8894L9.01022 21.9164V22.9167L22.284 22.8626C22.6929 22.8528 22.7655 22.7731 23.1221 22.5652C23.4855 22.3394 23.8483 21.6506 23.852 21.2135L23.014 21.1054V21.1054Z" fill="white"/>
</g>
<defs>
<clipPath id="clip0">
<path d="M0 0H32V32H0V0Z" fill="white"/>
</clipPath>
</defs>
</svg>
